symbolic/32x32/apps/4kyoutubetomp3.svg

<svg xmlns="http://www.w3.org/2000/svg" width="32" height="32" version="1">
 <path style="opacity:0.2" d="M 17.5,6 A 7.5,7.5 0 0 0 10.914062,9.9277344 5,5 0 0 0 6.765625,14.179688 6.4285712,6.4285712 0 0 0 1,20.572266 6.4285712,6.4285712 0 0 0 7.4277344,27 H 24.572266 A 6.4285712,6.4285712 0 0 0 31,20.572266 6.4285712,6.4285712 0 0 0 24.964844,14.15625 7.5,7.5 0 0 0 25,13.5 7.5,7.5 0 0 0 17.5,6 Z"/>
 <circle style="fill:#678dfd" cx="-24.571" cy="19.571" r="6.429" transform="scale(-1,1)"/>
 <circle style="fill:#678dfd" cx="-17.5" cy="12.5" r="7.5" transform="scale(-1,1)"/>
 <circle style="fill:#678dfd" cx="-11.714" cy="13.857" r="5" transform="scale(-1,1)"/>
 <circle style="fill:#678dfd" cx="-7.429" cy="19.571" r="6.429" transform="scale(-1,1)"/>
 <rect style="fill:#678dfd" width="17.143" height="8.571" x="-24.57" y="17.43" transform="scale(-1,1)"/>
 <path style="fill:#ffffff;opacity:0.2" d="M 17.5 5 A 7.5 7.5 0 0 0 10.914062 8.9277344 A 5 5 0 0 0 6.765625 13.179688 A 6.4285712 6.4285712 0 0 0 1 19.572266 A 6.4285712 6.4285712 0 0 0 1.0234375 20.056641 A 6.4285712 6.4285712 0 0 1 6.765625 14.179688 A 5 5 0 0 1 10.914062 9.9277344 A 7.5 7.5 0 0 1 17.5 6 A 7.5 7.5 0 0 1 24.974609 12.980469 A 7.5 7.5 0 0 0 25 12.5 A 7.5 7.5 0 0 0 17.5 5 z M 24.982422 13.158203 A 7.5 7.5 0 0 1 25 13.5 A 7.5 7.5 0 0 1 24.964844 14.15625 A 6.4285712 6.4285712 0 0 1 30.976562 20.089844 A 6.4285712 6.4285712 0 0 0 31 19.572266 A 6.4285712 6.4285712 0 0 0 24.982422 13.158203 z"/>
 <path style="opacity:0.2" d="M 21,10.500242 12.5,13 v 3 3.210938 C 12.184748,19.072515 11.844302,19.000702 11.5,19 10.119288,19 9,20.119288 9,21.5 c 0,1.380712 1.119288,2.5 2.5,2.5 1.341216,-0.001 2.442655,-1.060239 2.496094,-2.400391 H 14 V 21.5 15.646484 l 5.5,-1.792726 v 4.35718 C 19.184748,18.072515 18.844302,18.000702 18.5,18 17.119288,18 16,19.119288 16,20.5 c 0,1.380712 1.119288,2.5 2.5,2.5 1.341216,-0.001 2.442655,-1.060239 2.496094,-2.400391 H 21 v -7.099367 z"/>
 <path style="fill:#ffffff" d="M 21,9.500242 12.5,12 v 3 3.210938 C 12.184748,18.072515 11.844302,18.000702 11.5,18 10.119288,18 9,19.119288 9,20.5 c 0,1.380712 1.119288,2.5 2.5,2.5 1.341216,-0.001 2.442655,-1.060239 2.496094,-2.400391 H 14 V 20.5 14.646484 l 5.5,-1.792726 v 4.35718 C 19.184748,17.072515 18.844302,17.000702 18.5,17 17.119288,17 16,18.119288 16,19.5 c 0,1.380712 1.119288,2.5 2.5,2.5 1.341216,-0.001 2.442655,-1.060239 2.496094,-2.400391 H 21 v -7.099367 z"/>
</svg>

<svg xmlns="http://www.w3.org/2000/svg" width="32" height="32" version="1"><path style="opacity:.2" d="M17.5 6a7.5 7.5 0 0 0-6.586 3.928 5 5 0 0 0-4.148 4.252A6.429 6.429 0 0 0 1 20.572 6.429 6.429 0 0 0 7.428 27h17.144A6.429 6.429 0 0 0 31 20.572a6.429 6.429 0 0 0-6.035-6.416A7.5 7.5 0 0 0 25 13.5 7.5 7.5 0 0 0 17.5 6z"/><circle style="fill:#678dfd" cx="-24.571" cy="19.571" r="6.429" transform="scale(-1 1)"/><circle style="fill:#678dfd" cx="-17.5" cy="12.5" r="7.5" transform="scale(-1 1)"/><circle style="fill:#678dfd" cx="-11.714" cy="13.857" r="5" transform="scale(-1 1)"/><circle style="fill:#678dfd" cx="-7.429" cy="19.571" r="6.429" transform="scale(-1 1)"/><path style="fill:#678dfd" transform="scale(-1 1)" d="M-24.57 17.43h17.143v8.571H-24.57z"/><path style="fill:#fff;opacity:.2" d="M17.5 5a7.5 7.5 0 0 0-6.586 3.928 5 5 0 0 0-4.148 4.252A6.429 6.429 0 0 0 1 19.572a6.429 6.429 0 0 0 .023.485 6.429 6.429 0 0 1 5.743-5.877 5 5 0 0 1 4.148-4.252A7.5 7.5 0 0 1 17.5 6a7.5 7.5 0 0 1 7.475 6.98A7.5 7.5 0 0 0 25 12.5 7.5 7.5 0 0 0 17.5 5zm7.482 8.158A7.5 7.5 0 0 1 25 13.5a7.5 7.5 0 0 1-.035.656 6.429 6.429 0 0 1 6.012 5.934 6.429 6.429 0 0 0 .023-.518 6.429 6.429 0 0 0-6.018-6.414z"/><path style="opacity:.2" d="M21 10.5 12.5 13v6.21a2.5 2.5 0 1 0 1.496 2.389H14v-5.953l5.5-1.792v4.357a2.5 2.5 0 1 0 1.496 2.389H21v-7.1z"/><path style="fill:#fff" d="M21 9.5 12.5 12v6.21a2.5 2.5 0 1 0 1.496 2.389H14v-5.953l5.5-1.792v4.357a2.5 2.5 0 1 0 1.496 2.389H21v-7.1z"/></svg>
